!!!!SEGMENT: pl-wumfc--n68470--001-001_dobrzynski-ignacy-feliks--deux-nocturnes-notturno-op-24-no-i.krn
!!!cenid: 18xx:4170
!!!COM: Dobrzyński, Ignacy Feliks
!!!COM-rismID: pe30020642
!!!CDT: 1807/02/15-1867/10/09
!!!CNT: Polish
!!!GTL: Deux Nocturnes
!!!OTL: Notturno op. 24 No. I
!!!OMV: 001
!!!PDT:
!!!AGN:
!!!SMS-siglum: PL-Wumfc
!!!SMS-shelfmark: N68470
!!!SMS-variant:
!!!SMS-altvar:
!!!SMS-shelfwork: 001-001 G
!!!NIFC-rismSourceID: 1001177655
!!!NIFC-rismChildID: 1001177655
!!!NIFC-islandoraID: pl-wumfc:8416
!!!URL-pdf-islandora: https://repozytorium.nifc.pl/islandora/object/pl-wumfc%3A8416/datastream/PDF/view
!!!URL-scan: https://polish.musicsources.pl/pl/lokalizacje/galeria/druki-muzyczne/12635/1 @EN{Scan on Polish Music Sources Website} @PL{Skany w portalu Dziedzictwo Muzyki Polskiej w otwartym dostępie}
!!!IIIF:
!!!ONB-nifc: UWAGA: w zbiorze 1. Notturno No. I, 2. Notturno No. II
!!!AIN: 2 piano
!!!key: f
**kern	**dynam	**kern	**dynam
*part2	*part2	*part1	*part1
*staff2	*	*staff1	*
*I"PIANO	*	*I"PIANO	*
*I'pf	*	*I'pf	*
*ICklav	*	*ICklav	*
*Ipiano	*	*Ipiano	*
*clefF4	*	*clefG2	*
*k[b-e-a-d-]	*	*k[b-e-a-d-]	*
*f:	*	*f:	*
*M4/4	*	*M4/4	*
*met(c)	*	*met(c)	*
=1	=1	=1	=1
!!LO:TX:t=P:problem: w źródle liczne adnotacje dopisane ołówkiem	!	!	!
*ped	*	*	*
!LO:TX:t=P:problem:mixed beam	!	!LO:TX:a:B:t=Moderatissimo.	!
!LO:TUP:a	!	!	!
(12FF/L	.	1r	p
12A-\	.	.	.
12F\J	.	.	.
*Xtuplet	*	*	*
12C\L	.	.	.
12A-\	.	.	.
12F\J	.	.	.
!LO:TX:t=P:problem:mixed beam	!	!	!
12FF/L	.	.	.
12A-\	.	.	.
12F\J	.	.	.
12C\L	.	.	.
12A-\	.	.	.
12F\J)	.	.	.
*Xped	*	*	*
=2	=2	=2	=2
*ped	*	*	*
!LO:TX:t=P:problem:mixed beam	!	!LO:TX:b:B:t=con malinconia.	!
12FF/L	.	(2cc\	<
12A-\	.	.	.
12F\J	.	.	.
12C\L	.	.	.
12A-\	.	.	.
12F\J	.	.	.
!LO:TX:t=P:problem:mixed beam	!	!	!
12AA-/L	.	2ff\)	[
12c\	.	.	.
12A-\J	.	.	.
12F\L	.	.	.
12c\	.	.	.
12A-\J	.	.	.
*Xped	*	*	*
=3	=3	=3	=3
*ped	*	*	*
(12BB-\L	.	(2ee-\	>
12B-\	.	.	.
12G\J	.	.	.
12F\L	.	.	.
12B-\	.	.	.
12G\J	.	.	.
12BB-\L	.	4dd-\)	]
12d-\	.	.	.
12G\J	.	.	.
12F\L	.	4r	.
12d-\	.	.	.
12G\J)	.	.	.
*Xped	*	*	*
=4	=4	=4	=4
*ped	*	*	*
!LO:TX:t=P:problem:mixed beam	!	!	!
(12C/L	.	2gSss/	.
12en\	.	.	.
12B-\J	.	.	.
12G\L	.	.	.
12e\	.	.	.
12B-\J	.	.	.
!LO:TX:t=P:problem:mixed beam	!	!	!
12C/L	.	(4dd-\	>
12e\	.	.	.
12B-\J	.	.	.
12G\L	.	8cc\L	]
12e\	.	.	.
.	.	8b-\J)	.
12B-\J)	.	.	.
*Xped	*	*	*
!!LO:LB:g=original	!	!	!
=5	=5	=5	=5
*ped	*	*	*
(12D-\L	.	(2b-\	.
12f\	.	.	.
12d-\J	.	.	.
12A-\L	.	.	.
12f\	.	.	.
12d-\J	.	.	.
12D-\L	.	4a-/)	.
12f\	.	.	.
12d-\J	.	.	.
12A-\L	.	4r	.
12f\	.	.	.
12d-\J)	.	.	.
*Xped	*	*	*
=6	=6	=6	=6
*ped	*	*	*
!LO:TX:t=P:problem:mixed beam	!	!	!
(12AA-/L	.	(4ccc\	f
12c\	.	.	.
12A-\J	.	.	.
12F\L	.	8bb-\L	<
12c\	.	.	.
.	.	8aa-\J	.
12A-\J	.	.	.
!LO:TX:t=P:problem:mixed beam	!	!	!
12AA-/L	.	8gg\L	.
12c\	.	.	.
.	.	8ff\	.
12A-\J	.	.	.
12F\L	.	8een\	.
12c\	.	.	.
.	.	8ff\J)	[[
12A-\J)	.	.	.
*Xped	*	*	*
=7	=7	=7	=7
*ped	*	*	*
!LO:TX:t=P:problem:mixed beam	!	!	!LO:HP:b:t=dimin.
(12BB-/L	.	8ee-\L	>
12d-\	.	.	.
.	.	(8ddn\	.
12B-\J	.	.	.
12G\L	.	8dd-X\)	.
12d-\	.	.	.
.	.	(8cc\J	.
12B-\J	.	.	.
!LO:TX:t=P:problem:mixed beam	!	!	!
12BB-/L	.	8b-/L)	.
12d-\	.	.	.
.	.	(8an/	.
12B-\J	.	.	.
12G\L	.	8a-X/)	.
12d-\	.	.	.
.	.	(8g/J	.
12B-\J)	.	.	.
*Xped	*	*	*
=8	=8	=8	=8
*ped	*	*	*
(12C\L	.	2fSSs/)	p
12c\	.	.	.
12A-\J	.	.	.
12F\L	.	.	.
12c\	.	.	.
*Xped	*	*	*
12A-\J	.	.	.
*ped	*	*	*
12C\L	.	(4.a-^/	.
12en\	.	.	.
12c\J	.	.	.
12B-\L	.	.	.
12e\	.	.	.
.	.	8g/)	.
12c\J)	.	.	.
*Xped	*	*	*
=9	=9	=9	=9
*ped	*	*	*
(12F\L	.	2f/	.
12c\	.	.	.
12A-\J	.	.	.
12c\L	.	.	.
12F\	.	.	.
12A-\J	.	.	.
*Xped	*	*	*
12C/L	.	2r	.
12F/	.	.	.
12AA-/J	.	.	.
12C/L	.	.	.
12AA-/	.	.	.
12GG/J)	.	.	.
!!LO:LB:g=original	!	!	!
=10	=10	=10	=10
*ped	*	*	*
!LO:TX:t=P:problem:mixed beam	!	!	!
12FF/L	.	(2cc\	.
12A-\	.	.	.
12F\J	.	.	.
12C\L	.	.	.
12A-\	.	.	.
12F\J	.	.	.
.	.	16qqdd-/LL	.
.	.	16qqcc/	.
.	.	16qqbn/	.
!LO:TX:t=P:problem:mixed beam	!	!	!
.	.	16qqcc/JJ	.
12AA-/L	.	2ff\)	.
12c\	.	.	.
12A-\J	.	.	.
12F\L	.	.	.
12c\	.	.	.
12A-\J	.	.	.
*Xped	*	*	*
=11	=11	=11	=11
*ped	*	*	*
(>12BB-\L	.	(4.ee-\	<
12B-\	.	.	.
12G\J	.	.	.
12F\L	.	.	.
12B-\	.	.	.
.	.	8ddn\	.
12G\J	.	.	.
12BB-\L	.	4dd-X\)	[ >
12d-\	.	.	.
12G\J	.	.	.
12F\L	.	4r	]
12d-\	.	.	.
12G\J)	.	.	.
*Xped	*	*	*
=12	=12	=12	=12
*	*	*	*^
*ped	*	*	*	*
(12C\L	.	4g/	<	.
12en\	.	.	.	.
12c\J	.	.	.	.
.	.	(16qqa-/LL	[	.
.	.	16qqg/	.	.
.	.	16qqf#X/	.	.
.	.	16qqg/JJ)	.	.
*	*	*Xtuplet	*	*
12B-\L	.	12ddd-\L	.	sf
12e\	.	12bb-\	>	.
12c\J	.	12gg\J	.	.
12C\L	.	12een\L	.	.
12e\	.	12gg\	.	.
12c\J	.	12b-\J	.	.
12B-\L	.	12dd-^\L	]	.
12e\	.	12cc\	.	.
12c\J)	.	12b-\J	.	.
*	*	*	*v	*v
*Xped	*	*	*
=13	=13	=13	=13
*ped	*	*	*
12D-\L	.	(4.b-\	.
12f\	.	.	.
12d-\J	.	.	.
12A-\L	.	.	.
12f\	.	.	.
.	.	8an/	.
12d-\J	.	.	.
12D-\L	.	2a-X/)	.
12f\	.	.	.
12d-\J	.	.	.
12A-\L	.	.	.
12f\	.	.	.
12d-\J	.	.	.
*Xped	*	*	*
!!LO:LB:g=original	!	!	!
=14	=14	=14	=14
*ped	*	*	*
!LO:TX:t=P:problem:mixed beam	!	!	!
12AA-/L	.	(4ccc\	f
12c\	.	.	.
12A-\J	.	.	.
12F\L	.	8bb-\L	.
12c\	.	.	.
.	.	8aa-\J	.
12A-\J	.	.	.
*	*	*tuplet	*
!LO:TX:t=P:problem:mixed beam	!	!LO:TUP:a:problem:klamra łukowa	!
12AA-/L	.	12aa-\L	.
12c\	.	12gg\	.
12A-\J	.	12ff\J	.
*	*	*Xtuplet	*
12F\L	.	12een\L	.
12c\	.	12gg\	.
12A-\J	.	12ff\J)	.
*Xped	*	*	*
=15	=15	=15	=15
*ped	*	*	*
!LO:TX:t=P:problem:mixed beam	!	!LO:TUP:a:problem:klamra łukowa	!
12BB-/L	.	12ff^<\L	.
12d-\	.	12ee-\	.
12B-\J	.	12dd-\J	.
!	!	!LO:TUP:a:problem:klamra łukowa	!
12G\L	.	12dd-^<\L	.
12d-\	.	12cc\	.
12B-\J	.	12b-\J	.
!LO:TX:t=P:problem:mixed beam	!	!	!
12BB-/L	.	(8.b-^>/L	.
12d-\	.	.	.
12B-\J	.	.	.
!	!	!	!LO:HP:b:t=dim.
.	.	16an/Jk	>
12G-X\L	.	12a-X/L	.
12d-\	.	12g/	.
12B-\J	.	12g-X/J)	.
*Xped	*	*	*
=16	=16	=16	=16
*ped	*	*	*
12C\L	.	2fSSs/	.
12c\	.	.	.
12A-\J	.	.	.
12F\L	.	.	.
12c\	.	.	.
*Xped	*	*	*
12A-\J	.	.	.
*ped	*	*	*
12C\L	.	(4.a-^>/	.
12en\	.	.	.
12c\J	.	.	.
12B-\L	.	.	.
12e\	.	.	.
.	.	8g/)	.
12c\J	.	.	.
*Xped	*	*	*
=17	=17	=17	=17
*ped	*	*	*
!LO:TX:t=P:problem:mixed beam	!	!	!
12FF/L	.	2f/	.
12A-\	.	.	.
12F\J	.	.	.
12C\L	.	.	.
12A-\	.	.	.
*Xped	*	*	*
12F\J	.	.	.
*ped	*	*	*
12GG\L	.	(4..e-/	<
12B-\	.	.	.
12E-\J	.	.	.
12D-\L	.	.	.
12B-\	.	.	.
12E-\J	.	.	.
.	.	16ee-\)	[[
*Xped	*	*	*
!!LO:LB:g=original	!	!	!
=18	=18	=18	=18
*ped	*	*	*
!LO:TX:t=P:problem:mixed beam	!	!	!
(12AA-/L	.	(2ee-\	f
12c\	.	.	.
12A-\J	.	.	.
12E-\L	.	.	.
12c\	.	.	.
12A-\J	.	.	.
!LO:TX:t=P:problem:mixed beam	!	!	!
12C/L	.	2aa-\)	.
12e-\	.	.	.
12c\J	.	.	.
12A-\L	.	.	.
12e-\	.	.	.
12c\J)	.	.	.
*Xped	*	*	*
=19	=19	=19	=19
*ped	*	*	*
(12D-\L	.	(2gg\	.
12f\	.	.	.
12d-\J	.	.	.
12A-\L	.	.	.
12f\	.	.	.
12d-\J	.	.	.
12D-\L	.	4ff\)	>
12f\	.	.	.
12d-\J	.	.	.
12A-\L	.	4r	]
12f\	.	.	.
12d-\J)	.	.	.
*Xped	*	*	*
=20	=20	=20	=20
*ped	*	*	*
(12E-\L	.	4b-\	p
12g\	.	.	.
12e-\J	.	.	.
.	.	16qqcc/LL	.
.	.	16qqb-/	.
.	.	16qqan/	.
.	.	16qqb-/JJ	.
*	*	*tuplet	*
!	!	!LO:TUP:a	!
12d-\L	.	(28ddd-\LL	.
.	.	28ccc\	.
.	.	28bb-\	.
12g\	.	.	.
.	.	28aan\	.
.	.	28ccc\	.
12e-\J	.	.	.
.	.	28bb-\	.
.	.	28aa-X\	.
12E-\L	.	28gg\	.
.	.	28ff#X\	.
.	.	28gg\	.
12g\	.	.	.
.	.	28bb-\	.
.	.	28aa-\	.
12e-\J	.	.	.
.	.	28gg\	.
.	.	28ffn\	.
12d-\L	.	28ee-\	>
.	.	28ddn\	.
.	.	28ee-\	.
12g\	.	.	.
.	.	28gg'\	.
.	.	28ff'\	.
12e-\J)	.	.	.
.	.	28ee-'\	.
.	.	28dd-X'\JJ)	]]
*Xped	*	*	*
=21	=21	=21	=21
*ped	*	*	*
!LO:TX:t=P:problem:mixed beam	!	!	!
(12AA-/L	.	(2bn^<\	.
12dn\	.	.	.
12A-\J	.	.	.
12F\L	.	.	.
12d\	.	.	.
*Xped	*	*	*
12A-\J	.	.	.
*ped	*	*	*
!LO:TX:t=P:problem:mixed beam	!	!	!
12AA-/L	.	4cc\)	.
12e-\	.	.	.
12c\J	.	.	.
12A-\L	.	4r	.
12e-\	.	.	.
12c\J)	.	.	.
*Xped	*	*	*
!!LO:LB:g=original	!	!	!
=22	=22	=22	=22
*ped	*	*	*
!LO:TX:t=P:problem:mixed beam	!	!	!
12C/L	.	(4eee-\	f
12e-\	.	.	.
12c\J	.	.	.
12A-\L	.	8ddd-\L	.
12e-\	.	.	.
.	.	8ccc\J	.
12c\J	.	.	.
!LO:TX:t=P:problem:mixed beam	!	!LO:TUP:a	!
12C/L	.	12ccc\L	.
12e-\	.	12bb-\	.
12c\J	.	12aa-\J	.
*	*	*Xtuplet	*
12A-\L	.	12gg\L	.
12e-\	.	12bb-\	.
12c\J	.	12aa-\J)	.
*Xped	*	*	*
=23	=23	=23	=23
*^	*	*	*
*tuplet	*	*	*tuplet	*
*Xbrackettup	*	*	*	*
!LO:TUP:a:problem:klamra łukowa	!	!	!LO:TUP:a	!
12D-\	4B-^<\ 4d-	.	(12een\L	.
12en/L	.	.	12gg^<\	.
12f/J	.	.	12ff\J	.
*Xtuplet	*	*	*Xtuplet	*
12D-\L	4rEEyy	.	12cc\L	.
!	!	!	!LO:TX:b:B:t=ben riten.	!
(12g-X^<\	.	.	12ee-X^\	.
12f\J)	.	.	12dd-\J	.
12D-\L	2rEEyy	.	12an/L	.
12An^<\ 12e 12g-X	.	.	12cc/	.
12B-\J 12d- 12f	.	.	12b-/J	.
12D-\L	.	.	12f/L	.
12f^<\	.	.	12dd-^/	.
12d-\J	.	.	12b-/J)	.
*v	*v	*	*	*
=24	=24	=24	=24
*	*	*^	*
*ped	*	*	*	*
12E-\L	.	(8b-/L	2rcyy	.
12e-\	.	.	.	.
.	.	8a-/	.	.
12c\J	.	.	.	.
12A-\L	.	8g/	.	.
12e-\	.	.	.	.
.	.	8a-/J)	.	.
*Xped	*	*	*	*
12c\J	.	.	.	.
*ped	*	*	*	*
!LO:TX:t=P:problem:mixed beam	!	!	!	!
12EE-/L	.	(4.cc/	2d-\ 2g	sf >
12G\	.	.	.	.
12E-\J	.	.	.	.
12D-\L	.	.	.	.
12G\	.	.	.	.
.	.	8b-/)	.	.
12E-\J	.	.	.	]]
*	*	*v	*v	*
*Xped	*	*	*
=25	=25	=25	=25
(12AA-\L	.	2c/ 2a-	p
12A-\	.	.	.
12E-\J	.	.	.
12Dn\L	.	.	.
12E-\	.	.	.
12C\J	.	.	.
12AA-\L	.	2r	.
12A-\	.	.	.
12E-\J	.	.	.
12D\L	.	.	.
12E-\	.	.	.
12C\J)	.	.	.
!!LO:PB:g=original	!	!	!
=26	=26	=26	=26
*ped	*	*	*
!LO:TX:t=P:problem:mixed beam	!	!LO:TX:b:B:t=espress.	!
(12AA-/L	.	4ee-\	.
12c\	.	.	.
12A-\J	.	.	.
12G-X\L	.	8ff\L	.
12c\	.	.	.
.	.	8ee-\J	.
12A-\J	.	.	.
*	*	*tuplet	*
!	!	!LO:TUP:a:problem:klamra łukowa	!
12AA-\L	.	12ee-^<\L	.
12c\	.	12dd-\	.
12A-\J	.	12cc\J	.
!	!	!LO:TX:t=P:problem: plama w miejscu 3, nie jest pewne czy tuplet jest oznaczony	!
!	!	!LO:TUP:a:problem:klamra łukowa	!
12G-\L	.	12cc^<\L	.
12c\	.	12b-\	.
12A-\J)	.	12a-\J	.
*Xped	*	*	*
=27	=27	=27	=27
*ped	*	*	*
.	.	8qa-/	.
(12D-\L	.	(4.aa-^<\	.
12f\	.	.	.
12d-\J	.	.	.
12A-\L	.	.	.
12f\	.	.	.
.	.	8ff\)	.
12d-\J	.	.	.
12D-\L	.	4dd-\	.
12f\	.	.	.
12d-\J	.	.	.
12A-\L	.	4r	.
12f\	.	.	.
12d-\J)	.	.	.
*Xped	*	*	*
=28	=28	=28	=28
*ped	*	*	*
!LO:TX:t=P:problem:mixed beam	!	!	!
12AA-/L	.	(4ee-SSs\	.
12c\	.	.	.
12A-\J	.	.	.
12G-X\L	.	8.ff\L	.
12c\	.	.	.
12A-\J	.	.	.
.	.	16ee-\Jk)	.
!LO:TX:t=P:problem:mixed beam	!	!LO:TUP:a:problem:klamra łukowa	!
12AA-/L	.	12ee-^<\L	.
12c\	.	12dd-y\	.
12A-\J	.	12cc\J	.
*	*	*Xtuplet	*
!	!	!LO:TUP:a:problem:klamra łukowa	!
12G-\L	.	12cc^<\L	.
12c\	.	12b-\	.
12A-\J	.	12a-\J	.
*Xped	*	*	*
=29	=29	=29	=29
*ped	*	*	*
.	.	8qa-/	.
12D-\L	.	(4.aa-^<\	.
12f\	.	.	.
12d-\J	.	.	.
12A-\L	.	.	.
12f\	.	.	.
.	.	8ff\	.
12d-\J	.	.	.
12D-\L	.	4dd-\)	.
12f\	.	.	.
12d-\J	.	.	.
12A-\L	.	4r	.
12f\	.	.	.
12d-\J	.	.	.
*Xped	*	*	*
!!LO:LB:g=original	!	!	!
=30	=30	=30	=30
*ped	*	*	*
!	!	!	!LO:DY:b:t=più f
12BB-\L	.	(4ff\	f
12dn\	.	.	.
12A-\J	.	.	.
12F\L	.	8.gg-X\L	.
12d\	.	.	.
12A-\J	.	.	.
.	.	16ff\Jk	.
*	*	*tuplet	*
!	!	!LO:TUP:a:problem:klamra łukowa	!
12BB-\L	.	12ff^<\L	.
12d\	.	12ee-\	.
12A-\J	.	12ddn\J	.
*	*	*Xtuplet	*
!	!	!LO:TUP:a:problem:klamra łukowa	!
12F\L	.	12dd^<\L	.
12d\	.	12cc-X\	.
12A-\J	.	12b-\J)	.
*Xped	*	*	*
=31	=31	=31	=31
*ped	*	*	*
.	.	8qb-/	.
12E-\L	.	(4.bb-^<\	.
12g-X\	.	.	.
12e-\J	.	.	.
12B-\L	.	.	.
12g-\	.	.	.
.	.	8gg-X\	.
12e-\J	.	.	.
12E-\L	.	4ee-\)	.
12g-\	.	.	.
12e-\J	.	.	.
12B-\L	.	4r	.
12g-\	.	.	.
12e-\J	.	.	.
*Xped	*	*	*
=32	=32	=32	=32
*ped	*	*	*
12BB-\L	.	4ff\	.
12dn\	.	.	.
12A-\J	.	.	.
12F\L	.	(8.gg-X\L	.
12d\	.	.	.
12A-\J	.	.	.
.	.	16ff\Jk)	.
*	*	*tuplet	*
!	!	!LO:TUP:a:problem:klamra łukowa	!
12BB-\L	.	12ff^<\L	.
12d\	.	12ee-\	.
12A-\J	.	12ddn\J	.
*	*	*Xtuplet	*
!	!	!LO:TUP:a:problem:klamra łukowa	!
12F\L	.	12dd^<\L	.
12d\	.	12cc-X\	.
12A-\J	.	12b-\J	.
*Xped	*	*	*
=33	=33	=33	=33
*ped	*	*	*
.	.	(8qb-/	<
(12E-\L	.	2b-\) 2bb-	.
12g-X\	.	.	.
12e-\J	.	.	.
12B-\L	.	.	.
12g-\	.	.	.
*Xped	*	*	*
12e-\J	.	.	.
*ped	*	*	*
12D#X\L	.	[2bn\ [2bbn	[ > ]]
12f#X\	.	.	.
12Bn\J	.	.	.
12An\L	.	.	.
12f#\	.	.	.
12B\J)	.	.	.
*Xped	*	*	*
!!LO:LB:g=original	!	!	!
=34	=34	=34	=34
*	*	*^	*
*ped	*	*	*	*
(12En\L	.	4.bbnX/]	4bnX\]	pp
12gnX\	.	.	.	.
12en\J	.	.	.	.
12Bn\L	.	.	4rcyy	.
12g\	.	.	.	.
.	.	8gg\	.	.
12e\J	.	.	.	.
12E\L	.	4een\	2rcyy	.
12g\	.	.	.	.
12e\J	.	.	.	.
12B\L	.	4ra	.	.
12g\	.	.	.	.
12e\J)	.	.	.	.
*Xped	*	*	*	*
*	*	*v	*v	*
=35	=35	=35	=35
*ped	*	*	*
(12AA#X\L	.	(4.gg\	f >
12c#X\	.	.	.
12G\J	.	.	.
12En\L	.	.	.
12c#\	.	.	.
.	.	8een\	.
12G\J	.	.	.
12AA#\L	.	4cc#X\)	]
12c#\	.	.	.
12G\J	.	.	.
12E\L	.	4r	.
12c#\	.	.	.
12G\J)	.	.	.
*Xped	*	*	*
=36	=36	=36	=36
*ped	*	*	*
(12AA#X\L	.	(4.gg\	f >
12c#X\	.	.	.
12G\J	.	.	.
12En\L	.	.	.
12c#\	.	.	.
.	.	8een\	.
12G\J	.	.	.
12AA#\L	.	4cc#X\)	]
12c#\	.	.	.
12G\J	.	.	.
12E\L	.	4r	.
12c#\	.	.	.
12G\J)	.	.	.
*Xped	*	*	*
=37	=37	=37	=37
*ped	*	*	*
12BB-X\L	.	2gg\	p
12d-X\	.	.	.
12G\J	.	.	.
12En\L	.	.	.
12d-\	.	.	.
*Xped	*	*	*
12G\J	.	.	.
!	!	!	!LO:HP:b:t=dimin.
*ped	*	*	*
12BB-\L	.	(4..dd-X^<\	>
12B-\	.	.	.
12G\J	.	.	.
12E\L	.	.	.
12B-\	.	.	.
12G\J	.	.	.
.	.	16cc\)	.
*Xped	*	*	*
!!LO:LB:g=original	!	!	!
=38	=38	=38	=38
*ped	*	*	*
12AA-\L	.	(4..dd-X^<\	.
12A-\	.	.	.
12F\J	.	.	.
12En/L	.	.	.
12F/	.	.	.
*Xped	*	*	*
12AA-/J	.	.	.
.	.	16cc\)	.
*ped	*	*	*
!LO:TX:t=P:problem:mixed beam	!	!	!
12GG/L	.	(4..dd-^<\	pp
12B-\	.	.	.
12G\J	.	.	.
12EnX\L	.	.	.
12B-\	.	.	.
12G\J	.	.	.
.	.	16cc\)	.
*Xped	*	*	*
=39	=39	=39	=39
*ped	*	*	*
!LO:TX:t=P:problem:mixed beam	!	!	!
(12FF/L	.	(2cc\	.
12A-\	.	.	.
12F\J	.	.	.
12C\L	.	.	.
12A-\	.	.	.
12F\J	.	.	.
!LO:TX:t=P:problem:mixed beam	!	!	!
12AA-/L	.	2ff\)	.
12c\	.	.	.
12A-\J	.	.	.
12F\L	.	.	.
12c\	.	.	.
12A-\J)	.	.	.
*Xped	*	*	*
=40	=40	=40	=40
*ped	*	*	*
(12BB-\L	.	2ee-\	.
12B-\	.	.	.
12G\J	.	.	.
12F\L	.	.	.
12B-\	.	.	.
12G\J	.	.	.
.	.	(16qqdd-/LL	.
.	.	16qqff/	.
.	.	16qqee-/	.
.	.	16qqdd-/JJ)	.
12BB-\L	.	4dd-\	.
12d-\	.	.	.
12G\J	.	.	.
12F\L	.	4r	.
12d-\	.	.	.
12G\J)	.	.	.
*Xped	*	*	*
=41	=41	=41	=41
*ped	*	*	*
(12C\L	.	4g/	f
12en\	.	.	.
12B-\J	.	.	.
.	.	(16qqa-/LL	.
.	.	16qqg/	.
.	.	16qqf#X/	.
.	.	16qqg/JJ)	.
12G\L	.	8.ddd-\L	sf
12e\	.	.	.
12B-\J)	.	.	.
.	.	16ccc\Jk	.
*	*	*tuplet	*
!	!	!LO:TUP:a	!
(12C\L	.	(28bbn'\LL	.
.	.	28bb-X'\	.
.	.	28aan'\	.
12e\	.	.	.
.	.	28aa-X'\	.
.	.	28gg'\	.
!	!	!	!LO:HP:b=2
!	!	!	!LO:HP:t=dimin.
12B-\J	.	.	>
.	.	28gg-X'\	.
.	.	28ff'\	.
12G\L	.	28een'\	]
.	.	28ee-X'\	.
.	.	28ddn'\	.
12e\	.	.	.
.	.	28dd-X'\	.
.	.	28cc'\	.
*Xped	*	*	*
12B-\J)	.	.	.
.	.	28bn'\	.
.	.	28b-X'\JJ)	.
!!LO:LB:g=original	!	!	!
=42	=42	=42	=42
*ped	*	*	*
(12D-\L	.	2b-^\	p
12f\	.	.	.
12d-\J	.	.	.
12A-\L	.	.	.
12f\	.	.	.
12d-\J	.	.	.
.	.	(16qqa-/LL	.
.	.	16qqg/	.
.	.	16qqa-/	.
.	.	16qqg/	.
.	.	16qqa-/	.
.	.	16qqcc'/	.
.	.	16qqb-'/	.
.	.	16qqa-'/JJ)	.
12D-\L	.	4a-/	.
12f\	.	.	.
12d-\J	.	.	.
12A-\L	.	4r	.
12f\	.	.	.
12d-\J)	.	.	.
*Xped	*	*	*
=43	=43	=43	=43
*ped	*	*8va	*
!LO:TX:t=P:problem:mixed beam	!	!	!
(12AA-/L	.	4cccc\	f
12c\	.	.	.
12A-\J	.	.	.
12F\L	.	8.bbb-\L	.
12c\	.	.	.
12A-\J	.	.	.
.	.	16aaa-\Jk	.
!LO:TX:t=P:problem:mixed beam	!	!LO:TUP:a	!
12AA-/L	.	24ggg\LL	.
.	.	24aaa-\	.
12c\	.	24bbb-\	.
.	.	24aaa-\	.
12A-\J	.	24ggg\	.
.	.	24fff\JJ	.
!	!	!LO:TUP:a	!
12F\L	.	24eeen\LL	.
.	.	24fff\	.
12c\	.	24ggg\	.
.	.	24fff\	.
12A-\J)	.	24eee-X\	.
.	.	24ddd-\JJ	.
*Xped	*	*X8va	*
=44	=44	=44	=44
*ped	*	*	*
!LO:TX:t=P:problem:mixed beam	!	!LO:TUP:a	!
(12BB-/L	.	(24ccc\LL	>
.	.	24ddd-\	.
12d-\	.	24eee-\	.
.	.	24ddd-\	.
12B-\J	.	24ccc\	.
.	.	24ccc-X\JJ)	.
!	!	!LO:TUP:a	!
12G\L	.	(24bb-'\LL	]
.	.	24aan'\	.
12d-\	.	24aa-X'\	.
.	.	24gg'\	.
12B-\J	.	24gg-X'\	.
.	.	24ff'\JJ	.
!LO:TX:t=P:problem:mixed beam	!	!LO:TX:b:B:t=poco riten.	!
!	!	!LO:TUP:a	!
12BB-/L	.	24een'\LL	.
.	.	24ee-X'\	.
12d-\	.	24ddn'\	.
.	.	24dd-X'\	.
12B-\J	.	24ccn'\	.
.	.	24cc-X'\JJ	.
!	!	!LO:TUP:a	!
12G-X\L	.	(20b-'/LL	.
.	.	20an'/	.
12d-\	.	.	.
.	.	20a-X'/	.
.	.	20gn'/	.
12B-\J)	.	.	.
.	.	20g-X'/JJ))	.
*Xped	*	*	*
!!LO:LB:g=original	!	!	!
=45	=45	=45	=45
*ped	*	*	*
!	!	!LO:TX:t=P:problem:tryl z kasownikiem	!
(12C\L	.	2fT/	p
12c\	.	.	.
12A-\J	.	.	.
12F\L	.	.	.
12c\	.	.	.
*Xped	*	*	*
12A-\J	.	.	.
.	.	(16qqen/LL	.
.	.	16qqf/JJ)	.
*ped	*	*	*
12C\L	.	(4.a-^>/	.
12en\	.	.	.
12c\J	.	.	.
12B-\L	.	.	.
12e\	.	.	.
.	.	8g/)	.
12c\J)	.	.	.
*Xped	*	*	*
=46	=46	=46	=46
*ped	*	*	*
!LO:TX:t=P:problem:mixed beam	!	!	!
(12FF/L	.	4f/	.
12A-\	.	.	.
12F\J	.	.	.
12C\L	.	4r	.
12A-\	.	.	.
12F\J	.	.	.
!LO:TX:t=P:problem:mixed beam	!	!	!
12FF/L	.	4r	.
12A-\	.	.	.
12F\J	.	.	.
12C\L	.	8.r	.
12A-\	.	.	.
12F\J)	.	.	.
.	.	16f/	.
*Xped	*	*	*
=47	=47	=47	=47
*ped	*	*	*
(12FF\L	.	4..g-X^/	.
12An\	.	.	.
12E-\J	.	.	.
12C\L	.	.	.
12A\	.	.	.
12E-\J	.	.	.
.	.	(16f/	.
12FF\L	.	4..gg-X^<<\)	.
12A\	.	.	.
12E-\J	.	.	.
12C\L	.	.	.
12A\	.	.	.
12E-\J)	.	.	.
.	.	16ff\	.
*Xped	*	*	*
=48	=48	=48	=48
*ped	*	*	*
!LO:TX:t=P:problem:mixed beam	!	!	!
(12FF/L	.	([4ddd-\	<
12B-\	.	.	.
12F\J	.	.	.
!	!	!LO:TUP:a	!
12D-\L	.	12ddd-\L]	.
12B-\	.	12ccc\	.
12F\J	.	12bb-\J)	.
!LO:TX:t=P:problem:mixed beam	!	!	!
*	*	*8va	*
.	.	8qbb-/	.
12FF/L	.	([4dddd-X\	.
12B-\	.	.	.
12F\J	.	.	.
*	*	*Xtuplet	*
12D-\L	.	12dddd-\L]	.
12B-\	.	12cccc\	.
12F\J)	.	12bbb-\J)	.
*Xped	*	*	*
=49	=49	=49	=49
*ped	*	*tuplet	*
!LO:TX:t=P:problem:mixed beam	!	!LO:TUP:a	!
12FF/L	.	(24bbb-\LL	f
.	.	24eeen\	.
12B-\	.	24ggg\	.
.	.	24ddd-\	.
12G\J	.	24eee\	.
.	.	24bb-\JJ	.
*	*	*X8va	*
!	!	!LO:TX:a:B:t=loco.	!
!	!	!LO:TUP:a	!
12D-\L	.	24ddd-\LL	.
.	.	24gg\	.
12B-\	.	24bb-\	.
.	.	24een\	.
12G\J	.	24gg\	.
.	.	24dd-\JJ	.
!!LO:LB:g=original	!	!	!
!	!	!LO:TUP:a	!LO:HP:b:t=dimin.
(12FF\L	.	24een\LL	>
.	.	24b-\	.
12B-\	.	24dd-\	.
.	.	24g\	.
12G\J	.	24b-\	.
.	.	24e-\JJ)	.
!	!	!LO:TUP:a:problem:klamra łukowa	!
.	.	(8qe-/	.
12En\L	.	12dd-^<\L)	.
12B-\	.	12cc\	.
12G\J)	.	12b-\J	.
*Xped	*	*	*
=50	=50	=50	=50
*ped	*	*	*
.	.	(16qqan/LL	p
.	.	16qqb-/	.
!LO:TX:t=P:problem:mixed beam	!	!	!
.	.	16qqcc/JJ)	.
(12FF/L	.	(4..b-^<\	.
12A-\	.	.	.
12F\J	.	.	.
12C\L	.	.	.
12A-\	.	.	.
12F\J	.	.	.
.	.	16a-X/)	<
!LO:TX:t=P:problem:mixed beam	!	!	!
12FF/L	.	4a-/	.
12A-\	.	.	.
12F\J	.	.	.
12C\L	.	8.r	.
12A-\	.	.	.
12F\J)	.	.	.
.	.	16f/	[
*Xped	*	*	*
=51	=51	=51	=51
*	*	*^	*
*ped	*	*	*	*
(12FF\L	.	2an/ 2cc 2ee-	4..g-X\	f
12An\	.	.	.	.
12E-\J	.	.	.	.
12C\L	.	.	.	.
12A\	.	.	.	.
12E-\J	.	.	.	.
!	!	!LO:TX:b:B:t=con passione.	!	!
.	.	.	16f\	.
12FF\L	.	4..gg-X/	2a\ 2cc 2ee-	.
12A\	.	.	.	.
12E-\J	.	.	.	.
12C\L	.	.	.	.
12A\	.	.	.	.
12E-\J)	.	.	.	.
.	.	16ff/	.	.
*Xped	*	*	*	*
=52	=52	=52	=52	=52
*ped	*	*	*	*
!LO:TX:t=P:problem:mixed beam	!	!	!	!
(12FF/L	.	4..ccc/	2dd-\ 2ff	.
12B-\	.	.	.	.
12F\J	.	.	.	.
12D-\L	.	.	.	.
12B-\	.	.	.	.
12F\J	.	.	.	.
!	!	!LO:TX:b:B:t=acceler.	!	!
.	.	16bb-/	.	.
*	*	*v	*v	*
*	*	*8va	*
*	*	*^	*
!LO:TX:t=P:problem:mixed beam	!	!	!	!
12FF/L	.	8.eee-/L	4ff^\ 4bb-	.
12B-\	.	.	.	.
12F\J	.	.	.	.
.	.	16ddd-/Jk	.	.
12D-\L	.	8.ggg-X/L	4bb-^\ 4ddd-	.
12B-\	.	.	.	.
12F\J)	.	.	.	.
.	.	16fff/Jk	.	.
*Xped	*	*	*	*
=53	=53	=53	=53	=53
*ped	*	*	*	*
!LO:TX:t=P:problem:mixed beam	!	!LO:TUP:a	!	!
12FF^/L	.	12gg'\L 12bb- 12ddd- 12eeen	4rcyy	ff
12B-^\	.	12een'\ 12gg 12bb- 12ddd-	.	.
*	*	*X8va	*	*
!	!	!LO:TX:a:B:t=loco.	!	!
12G^\J	.	12dd-'\J 12ee 12gg 12bb-	.	.
!	!	!LO:TUP:a	!	!
12D-^\L	.	12b-'\L 12dd- 12ee 12gg	4rcyy	.
12B-^\	.	12g'\ 12b- 12dd- 12ee	.	.
12G^\J	.	12eny'\J 12g 12b- 12dd-	.	.
*	*	*Xtuplet	*	*
12FF\L	.	12b-^:/L	4d-:\ 4e:	.
12G\	.	12a-/	.	.
12D-\J	.	12g/J	.	.
12FF\L	.	12g/L	4B-\ 4d-	.
12G\	.	12f/	.	.
12D-\J	.	12en/J	.	.
*Xped	*	*	*	*
!!LO:PB:g=original	!	!	!	!
=54	=54	=54	=54	=54
*ped	*	*	*	*
!	!	!	!	!LO:DY:a
(>12FF/L	.	4f/	4A-\ 4c	p
12F/	.	.	.	.
*Xped	*	*	*	*
12C/J	.	.	.	.
*ped	*	*	*	*
!	!	!LO:TX:a:B:t=ma espressivo.	!	!
12DD-/L	.	(<8.f:/L	4A-:\ 4d-:	.
12F/	.	.	.	.
*Xped	*	*	*	*
12AA-/J	.	.	.	.
.	.	16a-/Jk)	.	.
*ped	*	*	*	*
12BBB-/L	.	(<8.a-^:/L	4B-:\ 4d-:	.
12D-/	.	.	.	.
*Xped	*	*	*	*
12BB-/J	.	.	.	.
.	.	16g/Jk)	.	.
*ped	*	*	*	*
12CC/L	.	(<8.f^:/L	4G:\ 4B-:	.
12GG/	.	.	.	.
*Xped	*	*	*	*
12C/J)	.	.	.	.
.	.	16en/Jk)	.	.
=55	=55	=55	=55	=55
*ped	*	*	*	*
12FF/L	.	8.f/L	4A-\ 4c	.
12F/	.	.	.	.
*Xped	*	*	*	*
12C/J	.	.	.	.
!	!	!LO:TX:b:B:t=sempre più ritard.	!	!
.	.	16f/Jk	.	.
*ped	*	*tuplet	*	*
!	!	!LO:TUP:a:problem:klamra łukowa	!	!
12DD-/L	.	(<12f/L	4A-\ 4d-	.
12F/	.	12g/	.	.
*Xped	*	*	*	*
12AA-/J	.	12a-/J)	.	.
*ped	*	*Xtuplet	*	*
12BBB-/L	.	(8.a-^/L	4B-\ 4d-	.
12D-/	.	.	.	.
*Xped	*	*	*	*
12BB-/J	.	.	.	.
.	.	16g/Jk)	.	.
.	.	(<16qqg/	.	.
*ped	*	*	*	*
12CC/L	.	(<8.f/L)	4G\ 4B-	.
12GG/	.	.	.	.
*Xped	*	*	*	*
12C/J	.	.	.	.
.	.	16en/Jk)	.	.
=56	=56	=56	=56	=56
12FF/L	.	4f/	4A-\ 4c	.
12F/	.	.	.	.
12FF/J	.	.	.	.
!	!	!LO:TX:b:B:t=legato.	!	!
*ped	*	*	*	*
12BB-/L	.	8.f^/L	4B-\ 4d-	.
12BBB-/	.	.	.	.
*Xped	*	*	*	*
12BB-/J	.	.	.	.
.	.	16g/Jk	.	.
12FF/L	.	4a-/	4A-\ 4c	.
12F/	.	.	.	.
12FF/J	.	.	.	.
*ped	*	*	*	*
12BB-/L	.	8.f^/L	4B-\ 4d-	.
12BBB-/	.	.	.	.
*Xped	*	*	*	*
12BB-/J	.	.	.	.
.	.	16g/Jk	.	.
=57	=57	=57	=57	=57
*ped	*	*ped	*	*
!	!	!LO:TX:b:B:t=u. c.	!	!
4FF\	.	4an/	4An\ 4c	.
(>12AAn\L	.	(12F</L	4rcyy	.
12C\	.	12A</	.	.
12F\J	.	12c\J	.	.
12Any\L	.	12f\L	2rcyy	.
12c\	.	12a\	.	.
12f\J	.	12cc\J	.	.
*clefG2	*	*	*	*
12an\L	.	12ff\L	.	.
12cc\	.	12aan\	.	.
12ff\J	.	12ccc\J	.	.
*	*	*v	*v	*
=58	=58	=58	=58
4aan\)	.	4fff\)	.
4r	.	4r	.
*clefF4	*	*	*
2FF::\ 2C::	.	2F<::/ 2c:: 2an::	ppp
=59	=59	=59	=59
2FFF::\ 2FF::	.	2C<::/ 2An<::	.
2r;	.	2r;	.
*Xped	*	*Xped	*
==	==	==	==
*-	*-	*-	*-
!!!system-decoration: {(s1,s2)}
!!!RDF**kern: > = above
!!!RDF**kern: < = below
!!!ENC: Solarz Mateusz
!!!END: 2022-09-08
!!!ENC: Natalia Wrzos
!!!END: 2022-10-19
!!!YEC: Copyright 2022 Narodowy Instytut Fryderyka Chopina (https://polishscores.org)
!!!YEM: License CC-BY-4.0 (https://creativecommons.org/licenses/by/4.0)
